build/Karasa-Jaga/scalable/apps/libreoffice-writer-symbolic.svg

<svg enable-background="new" height="16" width="16.000429" xmlns="http://www.w3.org/2000/svg"><g fill="#bebebe" transform="translate(-256 -99.996704)"><path d="m2.2324219.08984375v15.82031225h11.5351561v-9.7597654l-6.0605468-6.06054685zm7.1621093 0 4.3730468 4.37304685v-4.37304685zm-5.5703124.73632813h3.6816406l5.4667966 5.46679692v8.8808592h-9.1484372z" transform="translate(256 99.996704)"/><path d="m261.00021 110.9967h3v.96875h-3z"/><path d="m261.00021 108.96545h6v1.0625h-6z"/><path d="m261.00021 107.02795h5v.96875h-5z"/><path d="m261.00021 105.02795h2.999998v.96875h-2.999998z"/></g></svg>

<?xml version="1.0" encoding="UTF-8" standalone="no"?>
<!-- Created with Inkscape (http://www.inkscape.org/) -->

<svg
   xmlns:osb="http://www.openswatchbook.org/uri/2009/osb"
   xmlns:dc="http://purl.org/dc/elements/1.1/"
   xmlns:cc="http://creativecommons.org/ns#"
   xmlns:rdf="http://www.w3.org/1999/02/22-rdf-syntax-ns#"
   xmlns:svg="http://www.w3.org/2000/svg"
   xmlns="http://www.w3.org/2000/svg"
   xmlns:sodipodi="http://sodipodi.sourceforge.net/DTD/sodipodi-0.dtd"
   xmlns:inkscape="http://www.inkscape.org/namespaces/inkscape"
   sodipodi:docname="libreoffice-writer-symbolic.svg"
   inkscape:export-filename="/home/sam/source-symbolic.png"
   inkscape:export-xdpi="270"
   inkscape:export-ydpi="270"
   height="16"
   id="svg7384"
   style="enable-background:new"
   version="1.1"
   inkscape:version="0.92.2 (unknown)"
   width="16.000429">
  <sodipodi:namedview
     inkscape:bbox-nodes="true"
     inkscape:bbox-paths="false"
     bordercolor="#666666"
     borderlayer="false"
     borderopacity="1"
     inkscape:current-layer="g6058"
     inkscape:cx="0.50621916"
     inkscape:cy="6.9460141"
     gridtolerance="10"
     inkscape:guide-bbox="true"
     guidetolerance="10"
     id="namedview88"
     inkscape:object-nodes="true"
     inkscape:object-paths="true"
     objecttolerance="10"
     pagecolor="#f7f7f7"
     inkscape:pageopacity="1"
     inkscape:pageshadow="2"
     showborder="true"
     showgrid="false"
     showguides="true"
     inkscape:showpageshadow="false"
     inkscape:snap-bbox="true"
     inkscape:snap-bbox-edge-midpoints="false"
     inkscape:snap-bbox-midpoints="true"
     inkscape:snap-center="false"
     inkscape:snap-global="false"
     inkscape:snap-grids="true"
     inkscape:snap-intersection-paths="true"
     inkscape:snap-midpoints="false"
     inkscape:snap-nodes="true"
     inkscape:snap-object-midpoints="true"
     inkscape:snap-others="true"
     inkscape:snap-page="false"
     inkscape:snap-smooth-nodes="true"
     inkscape:snap-to-guides="true"
     inkscape:window-height="716"
     inkscape:window-maximized="1"
     inkscape:window-width="1366"
     inkscape:window-x="0"
     inkscape:window-y="27"
     inkscape:zoom="15.999999">
    <inkscape:grid
       color="#000000"
       dotted="false"
       empcolor="#0800ff"
       empopacity="0.4627451"
       empspacing="4"
       enabled="true"
       id="grid4866"
       opacity="0.16470588"
       originx="-256"
       originy="-584.0033"
       snapvisiblegridlinesonly="true"
       spacingx="0.25"
       spacingy="0.25"
       type="xygrid"
       visible="true" />
  </sodipodi:namedview>
  <metadata
     id="metadata90">
    <rdf:RDF>
      <cc:Work
         rdf:about="">
        <dc:format>image/svg+xml</dc:format>
        <dc:type
           rdf:resource="http://purl.org/dc/dcmitype/StillImage" />
        <dc:title>Paper Symbolic Icon Theme</dc:title>
      </cc:Work>
    </rdf:RDF>
  </metadata>
  <title
     id="title8473">Paper Symbolic Icon Theme</title>
  <defs
     id="defs7386">
    <linearGradient
       id="linearGradient5606"
       osb:paint="solid">
      <stop
         id="stop5608"
         offset="0"
         style="stop-color:#000000;stop-opacity:1;" />
    </linearGradient>
  </defs>
  <g
     inkscape:groupmode="layer"
     id="g6058"
     inkscape:label="apps"
     style="display:inline"
     transform="translate(-256,-99.996704)">
    <path
       style="opacity:1;fill:#bebebe;fill-opacity:1;stroke:none;stroke-width:1.15483868"
       d="M 2.2324219 0.08984375 L 2.2324219 15.910156 L 13.767578 15.910156 L 13.767578 6.1503906 L 7.7070312 0.08984375 L 2.2324219 0.08984375 z M 9.3945312 0.08984375 L 13.767578 4.4628906 L 13.767578 0.08984375 L 9.3945312 0.08984375 z M 3.8242188 0.82617188 L 7.5058594 0.82617188 L 12.972656 6.2929688 L 12.972656 15.173828 L 3.8242188 15.173828 L 3.8242188 0.82617188 z "
       transform="translate(256,99.996704)"
       id="rect1384" />
    <rect
       height="0.96875"
       id="rect12972"
       style="display:inline;fill:#bebebe;fill-opacity:1;stroke:none;enable-background:new"
       width="2.9999998"
       x="261.00021"
       y="110.9967" />
    <rect
       height="1.0625"
       id="rect12974"
       style="display:inline;fill:#bebebe;fill-opacity:1;stroke:none;enable-background:new"
       width="6"
       x="261.00021"
       y="108.96545" />
    <rect
       height="0.96875"
       id="rect12976"
       style="display:inline;fill:#bebebe;fill-opacity:1;stroke:none;enable-background:new"
       width="5"
       x="261.00021"
       y="107.02795" />
    <rect
       height="0.96875"
       id="rect12980"
       style="display:inline;fill:#bebebe;fill-opacity:1;stroke:none;enable-background:new"
       width="2.9999983"
       x="261.00021"
       y="105.02795" />
  </g>
</svg>
